X:1
T:Come potro giamai
T:Luca Marenzio
T:Source : Il secondo Libro delle canzonette alla Napolitana a tre voci---Venetia---G.Vincenti---1587. Editor : André Vierendeels (07/05/17).
T:Notes : Original clefs : G2, C2, F3 Editorial accidentals above the staff "Seconda impressione" Music collected by Attilio Gualtieri m 11 in S 2 : second "C" notated as "B " in original print m 17 in B : first"A" notated as "B" in original print m 18 in B :  "B" notated as "G" in original print (editorial proposition) 
T:Come potro giamai
T:©
T:©
C:Luca Marenzio
Z:©
%%score [ 1 2 3 ]
L:1/8
Q:1/4=120
M:4/4
K:F
V:1 treble nm="Soprano 1" snm="S 1"
V:2 treble nm="Soprano 2" snm="S 2"
V:3 bass nm="Bass" snm="B"
V:1
"^1)" c4 c4- | c2 c2 c2 d2 | e4 e4 | g2 f4 e2- | ee c2 d4 |[M:2/4] c4 :: z2 e2 | %7
w: Co- me|_ po- tro gia-|ma- i,|fi- nir tan-|* ti miei gua-|i,|sa|
w: Piu scior|_ non mi poss'|i- o;|ho- mai dol-|* ce ben mi-|o,|ch'A-|
[M:4/4] fedc =B2 BB | c=BAG F4 | G4 c4 | c3 B A3 G | F4 c4 | z4 d4 | d8 | ^c2 c4 d2 | e4 e4 | %16
w: mil- le'a mil- le'A- mo- re, sa|mil- me'a mil- le'A- mo-|re, a-|ven- ta stra- li'al|co- re,|io|mo-|ro'e del mo-|ri- re,|
w: mor de cri- ni d'o- ro, ch'A-|mor de cri- ni d'o-|ro, fa'i|lac- ci'ond' io pur|mo- ro,|e|strin-|ge'a mil- le'a|mil- le,|
 g2 f4 e2 | d4 c4 | c8 | A4 B4- | B4 A4 | G8 | F8 :| %23
w: ca- gion è|sol un|dol-|ce mio|_ mar-|ti-|re.|
w: in- di al|Sol de|le|lu- ci|_ tran-|quil-|le.|
V:2
"^2)""^1)" A4 A4- | A2 G2 A2 =B2 | c4 G4 | G2 B4 c2- | cc c2 =B4 |[M:2/4] c4 :: z4 | %7
w: Co- me|_ po- tro gia-|ma- i,|fi- nir tan-|* ti miei gua-|i,||
w: Poi che|_ non so fi-|ni- re,|il dol- ce|_ mio lan- gui-|re,||
[M:4/4] z2 F2 GFED | C2 CC DEFD | E4 E4 | z2 c2 c3 B | A3 G F4 | D4 F4 | G8 | E2 E4 F2 | G4 G4 | %16
w: sa mil- le'a mil- le'A-|mo- re, sa mil- le'a mil- le'A-|mo- re,|a- ven- ta|stra- li'al co-|re, io|mo-|ro'e del mo-|ri- re,|
w: e'al cor che mi si|sfa- ce, e'al cor che mi si|sfa- ce,|il pian- t'ohi-|me sol pia-|ce, a|mil-|le'a mil- le'o-|gn'ho- ra,|
 G2 d4 c2 | B4 A4 | A4 G4 | F4 G4 | E4 F4- | F4 E4 | F8 :| %23
w: ca- gion è|sol un|dol- ce|mio mar-|ti- *||re.|
w: la- gri- me|spar- go|da quest'|oc- chi|fu- o-||ra.|
V:3
"^3)""^1)""^4)" F,4 F,4- | F,2 E,2 F,2 D,2 | C,4 C,4 | C2 B,4 A,2- | A,A, F,2 G,4 |[M:2/4] C,4 :: %6
w: Co- me|_ po- tro gia-|ma- i,|fi- nir tan-|* ti miei gua-|i,|
w: A mil-|* le'a mil- le'A-|man- ti,|spar- go so|_ spi- ri'e pian-|ti,|
 C4 |[M:4/4] DCB,A, G,2 G,G, | A,G,F,E, D,4 | C,2 C2 C3 B, | A,3 G, F,4- | F,4 F,4 | B,8 | G,8 | %14
w: sa|mil- le'a mil- le'A- mo- re, sa|mil- le'a mil- me'A- mo-|ri, a- ven- ta|stra- li'al co-|* re,|io|mo-|
w: nè|tro- vo'al- tre di- let- to, nè|tro- vo'al- tre di- let-|to, che'a quel es-|ser so- get-|* to,|che'a|mil-|
 A,2 A,4 D,2 | C,4 C,4 | C2 B,4 A,2 | G,4 F,4 | F,4 C,4 | D,4 B,,4 | C,8- | C,8 | F,8 :| %23
w: ro'e del mo-|ri- re,|ca- gion è|sol un|dol- ce|mio mar-|ti-||re.|
w: l'e- ta- te|po- i,|splen- de- rà|sem- pre|co be-|gl'oc- chi|suo-||i.|

